X:193
T:Bill Sullivan's
M:2/4
L:1/8
R:polka
O:Ireland
N:Usually played in A
D:Highland Sun: Celtic Crossover (in `Patrick Street')
K:D
|:d2 d>B|AF d>E|FA d>B|AF ED|d2 d>B|AF d>E|FA E>F|ED D2:|
|:FA AG/F/|GB BD/E/|FA A/F/D/E/|FE ED/E/|FA AG/F/|GB BD/E/|FA E>F|ED D2:|
